dist/assets/images/producersColor/NLMK_Logo 3.svg

<svg width="93" height="49" viewBox="0 0 93 49" fill="none" xmlns="http://www.w3.org/2000/svg">
<path fill-rule="evenodd" clip-rule="evenodd" d="M46.5383 0.0683594H48.9439L51.2493 0.167473C106.786 4.45408 106.784 44.545 51.2493 48.8316L48.9439 48.9307H44.1327C30.17 48.749 5.63596 43.288 0.630924 28.2163L0.33022 27.0269L0.129752 25.7385C-0.857558 9.42292 24.3347 1.53026 37.2165 0.563918L41.8273 0.167473L44.1327 0.0683594H46.5383ZM46.5383 2.14972H48.7435L50.9486 2.24883C103.208 6.09604 103.208 42.9807 50.9486 46.7503L48.7435 46.8494H44.3332C31.4831 46.8015 8.08503 41.793 3.33725 27.9189L3.03655 26.8287L2.93632 25.6393C1.83207 10.5726 26.0387 3.55051 37.7177 2.54617L39.9228 2.34795L42.128 2.24883L44.3332 2.14972H46.5383ZM46.5383 4.92486L48.6432 5.02398H50.7482C99.4404 8.58211 99.4554 40.4847 50.7482 43.9751L48.6432 44.0742H44.4334C33.1821 43.99 10.5475 39.7662 6.24405 27.5225L5.94335 26.5314L5.84312 25.5402C4.82908 11.9371 28.1252 6.16707 38.3191 5.32131L40.3238 5.2222L42.3285 5.02398H44.4334L46.5383 4.92486ZM46.5383 4.03285H48.6432L50.7482 4.13197C100.515 7.61742 100.516 41.4296 50.7482 44.8671L48.6432 44.9663H44.4334C32.7678 44.9844 9.68544 40.3658 5.44218 27.6216L5.14148 26.6305L4.94101 25.5402C4.33793 11.3292 27.1931 5.36261 38.1186 4.4293L40.2235 4.23108L42.3285 4.13197L44.4334 4.03285H46.5383ZM13.1602 32.7754V16.3228H18.0717L24.2863 26.0358V16.3228H28.7968V32.7754H23.9856L17.6708 22.8642V32.7754H13.1602ZM31.9041 32.7754V16.3228H36.6151V28.8109H41.6268V32.7754H31.9041ZM42.3285 32.7754L44.8343 16.3228H49.5453L52.4521 26.3331L55.4592 16.3228H60.1702L62.6761 32.7754H58.0653L56.8625 23.2606L53.9557 32.7754H50.9486L48.1421 23.2606L46.839 32.7754H42.3285ZM64.4803 32.7754V16.3228H69.1913V23.2606L74.3033 16.3228H79.8162L73.4012 24.2518L80.0166 32.7754H74.1028L69.1913 25.7385V32.7754" fill="#004696"/>
</svg>

<svg width="93" height="49" fill="none" xmlns="http://www.w3.org/2000/svg"><path fill-rule="evenodd" clip-rule="evenodd" d="M46.538.068h2.406l2.305.1c55.537 4.286 55.535 44.377 0 48.664l-2.305.099h-4.811C30.17 48.749 5.636 43.288.63 28.216l-.3-1.19-.201-1.288C-.858 9.423 24.335 1.53 37.217.564l4.61-.397 2.306-.099h2.405zm0 2.082h2.206l2.205.099c52.259 3.847 52.259 40.732 0 44.501l-2.206.1h-4.41c-12.85-.05-36.248-5.058-40.996-18.932l-.3-1.09-.1-1.19C1.831 10.573 26.038 3.551 37.716 2.546l2.206-.198 2.205-.1 2.205-.098h2.205zm0 2.775l2.105.099h2.105c48.692 3.558 48.707 35.46 0 38.951l-2.105.1h-4.21c-11.25-.085-33.886-4.309-38.189-16.553l-.3-.99-.1-.992C4.828 11.937 28.124 6.167 38.318 5.321l2.005-.099 2.005-.198h2.104l2.105-.1zm0-.892h2.105l2.105.099c49.767 3.485 49.768 37.298 0 40.735l-2.105.1h-4.21c-11.665.017-34.748-4.601-38.99-17.345l-.302-.991-.2-1.09C4.338 11.328 27.193 5.362 38.119 4.428l2.105-.198 2.105-.099 2.104-.1h2.105zM13.16 32.775V16.323h4.912l6.214 9.713v-9.713h4.51v16.452h-4.81l-6.315-9.91v9.91h-4.51zm18.744 0V16.323h4.711V28.81h5.012v3.964h-9.723zm10.424 0l2.506-16.452h4.711l2.907 10.01 3.007-10.01h4.711l2.506 16.452h-4.61l-1.204-9.514-2.906 9.514h-3.007l-2.807-9.514-1.303 9.514h-4.51zm22.152 0V16.323h4.711v6.938l5.112-6.938h5.513l-6.415 7.929 6.616 8.523h-5.914l-4.912-7.037v7.037" fill="#004696"/></svg>
